build/dist/assets/images/services/service4.svg

<svg width="52" height="52" viewBox="0 0 52 52" fill="none" xmlns="http://www.w3.org/2000/svg">
<path d="M51.7854 38.8602L47.8377 34.2176L46.4297 27.3009C46.3847 27.0789 46.2584 26.8818 46.0755 26.7482L39.465 21.9317C39.6661 20.1585 39.8401 18.4334 39.9724 16.7708C40.0772 15.4731 39.8177 14.1718 39.2231 13.0135V6.99465C39.2231 6.27163 38.9395 5.59753 38.4321 5.10283C38.1841 4.85429 37.8893 4.65732 37.5647 4.52328C37.2402 4.38923 36.8923 4.32076 36.5412 4.32182C36.0891 4.32182 35.6705 4.44504 35.2972 4.64347C35.1867 4.45181 35.0528 4.27467 34.8985 4.11615C34.65 3.86513 34.354 3.66596 34.0279 3.53018C33.7017 3.39441 33.3519 3.32472 32.9986 3.32518C32.5274 3.32518 32.0898 3.45927 31.7047 3.67491C31.4639 3.2971 31.1315 2.98634 30.7383 2.77154C30.3451 2.55673 29.904 2.44485 29.4559 2.44631C29.0319 2.44631 28.636 2.55504 28.279 2.73262C28.1549 2.48678 27.9952 2.26056 27.8051 2.06125C27.3005 1.56497 26.6211 1.28677 25.9133 1.28658C25.3815 1.28658 24.8895 1.44786 24.4727 1.71695C24.3279 1.4855 24.158 1.27068 23.9662 1.07638C23.2667 0.390642 22.3274 0.00453097 21.3478 0C19.3092 0 17.6502 1.65806 17.6502 3.69665V8.19969C16.2458 10.1187 15.6913 12.9184 16.167 15.6981C16.3355 16.7074 16.649 17.6986 17.0712 18.5648C17.4563 19.3513 17.9356 20.0806 18.4004 20.7864C19.1832 21.9788 19.9235 23.1041 20.1255 24.3626C20.2814 25.3266 20.111 26.345 19.9298 27.4214C19.8691 27.7811 19.8093 28.1408 19.7604 28.4978C19.3092 31.755 19.8483 35.2161 21.2789 38.2404C22.0445 39.8668 22.8418 41.1443 24.248 42.0947C25.6504 43.0325 27.2978 43.5367 28.9848 43.5444C30.3307 43.5455 31.6571 43.2223 32.8516 42.6022C34.0461 41.9821 35.0736 41.0832 35.8472 39.9818C35.9061 40.0616 35.974 40.1359 36.0565 40.193L43.0439 45.0185C43.2417 45.1551 43.4858 45.2076 43.7223 45.1642C43.9588 45.1209 44.1685 44.9854 44.3051 44.7875C44.4417 44.5896 44.4941 44.3456 44.4508 44.109C44.4074 43.8725 44.2719 43.6629 44.074 43.5263L37.3023 38.8511L35.1096 33.7021C35.0665 33.6 35.0051 33.5066 34.9284 33.4266L31.1919 29.5614C31.0359 29.4011 30.9322 29.1973 30.8945 28.9768C30.8568 28.7563 30.8869 28.5295 30.9808 28.3265C31.0465 28.1811 31.1431 28.0518 31.2639 27.9475C31.3847 27.8433 31.5268 27.7667 31.6803 27.7231C31.9974 27.6325 32.3199 27.6796 32.5954 27.8563L36.9689 30.6895C36.987 30.7031 37.0051 30.7148 37.0259 30.7257L38.7519 31.8447C38.8518 31.9093 38.9633 31.9536 39.0803 31.9751C39.1972 31.9966 39.3173 31.9948 39.4336 31.9699C39.5498 31.945 39.6601 31.8974 39.758 31.8299C39.8558 31.7624 39.9395 31.6763 40.0041 31.5765C40.0687 31.4767 40.113 31.3651 40.1345 31.2481C40.156 31.1312 40.1542 31.0111 40.1293 30.8949C40.1044 30.7786 40.0569 30.6684 39.9894 30.5705C39.9219 30.4726 39.8357 30.3889 39.7359 30.3243L38.4557 29.4944C38.7456 27.5854 38.9984 25.7588 39.2195 23.9965L44.7237 28.0067L46.1081 34.8074C46.138 34.9578 46.2069 35.0974 46.3056 35.2142L50.4036 40.0335C50.4804 40.1247 50.5744 40.1998 50.6804 40.2544C50.7863 40.309 50.9021 40.3421 51.0209 40.3517C51.1397 40.3613 51.2592 40.3473 51.3725 40.3104C51.4859 40.2735 51.5908 40.2145 51.6812 40.1368C51.8641 39.9811 51.9777 39.7592 51.997 39.5198C52.0164 39.2805 51.9399 39.0432 51.7845 38.8602H51.7854ZM35.6805 6.99465C35.68 6.82308 35.7308 6.65528 35.8263 6.51279C35.9219 6.3703 36.0579 6.25962 36.2168 6.19496C36.3757 6.1303 36.5504 6.11461 36.7183 6.14991C36.8862 6.1852 37.0397 6.26987 37.1591 6.39304C37.2394 6.47123 37.3031 6.56482 37.3463 6.66818C37.3896 6.77155 37.4116 6.88259 37.411 6.99465V10.7583C36.888 10.3276 36.305 9.97536 35.6805 9.71278V6.99465ZM32.1378 6.00706C32.1378 5.52686 32.5238 5.13726 32.9986 5.13726C33.2293 5.13726 33.4505 5.2289 33.6136 5.39202C33.7767 5.55514 33.8684 5.77638 33.8684 6.00706V9.22351C33.7307 9.20539 33.5938 9.18274 33.4534 9.17187L32.1378 9.07583V6.00706ZM28.5952 5.1282C28.5952 4.6489 28.9812 4.2584 29.4559 4.2584C29.6864 4.25912 29.9072 4.35099 30.0702 4.51395C30.2332 4.67692 30.325 4.89774 30.3257 5.1282V8.66539C30.0132 8.53866 29.7137 8.38177 29.4315 8.19697L28.5952 7.64156V5.1282ZM25.0526 3.96847C25.0515 3.79765 25.1009 3.63033 25.1947 3.48754C25.2884 3.34474 25.4223 3.23286 25.5794 3.16594C25.7366 3.09903 25.91 3.08008 26.0779 3.11147C26.2458 3.14287 26.4007 3.22321 26.5231 3.34239C26.6916 3.51454 26.7831 3.73561 26.7831 3.96847V6.45646C26.2422 6.13234 25.6601 5.88245 25.0526 5.7135V3.96847ZM19.4623 3.69665C19.4623 2.65833 20.3076 1.81209 21.3469 1.81209C21.8452 1.81209 22.3363 2.01504 22.6905 2.36296C23.0457 2.71722 23.2405 3.19108 23.2405 3.69665V5.458C21.9058 5.43139 20.5925 5.79578 19.4623 6.50629V3.69665ZM38.1657 16.6259C37.8776 20.2573 37.4182 24.1397 36.784 28.4108L33.5812 26.3359C33.2292 26.1076 32.832 25.9578 32.4169 25.897C32.0017 25.8362 31.5783 25.8657 31.1756 25.9835C30.3602 26.2209 29.6897 26.7989 29.3354 27.5709C29.0878 28.1048 29.0082 28.7015 29.1072 29.2817C29.2063 29.8619 29.4792 30.3983 29.8899 30.8199L33.5078 34.5655L34.9493 37.9496C34.4181 39.0823 33.5748 40.04 32.5182 40.7101C31.4617 41.3801 30.2359 41.7348 28.9848 41.7323C27.6586 41.7261 26.3635 41.3297 25.261 40.5925C24.1964 39.8722 23.5748 38.8638 22.917 37.4667C21.635 34.7558 21.1512 31.6589 21.5562 28.7442C21.6015 28.4035 21.6594 28.0629 21.7165 27.7213C21.914 26.547 22.1188 25.332 21.915 24.0754C21.6513 22.4336 20.7679 21.0909 19.9144 19.7907C19.4614 19.1021 19.0337 18.4525 18.7003 17.7693C18.34 17.0175 18.0886 16.2182 17.9537 15.3955C17.5569 13.0778 17.9945 10.7819 19.1243 9.25251C19.9425 8.14442 21.0769 7.48935 22.4948 7.30451C23.7536 7.14131 25.0289 7.44144 26.0827 8.14895L28.4258 9.70462C30.0974 10.8254 31.4067 10.8399 33.3202 10.9794C34.0113 11.029 34.6856 11.2156 35.3039 11.5282C35.9222 11.8409 36.4721 12.2734 36.9217 12.8006C37.3727 13.3238 37.715 13.9316 37.9286 14.5886C38.1422 15.2455 38.2228 15.9384 38.1657 16.6268V16.6259Z" fill="#009B97"/>
<path d="M31.4428 22.5322C30.5263 22.1846 29.5244 22.1304 28.5757 22.377C27.627 22.6237 26.7784 23.159 26.1473 23.909C25.5161 24.659 25.1335 25.5865 25.0525 26.5634C24.9714 27.5403 25.1959 28.5182 25.6949 29.3619C25.7555 29.4643 25.8356 29.5539 25.9308 29.6253C26.0259 29.6968 26.1342 29.7488 26.2495 29.7784C26.3648 29.8081 26.4847 29.8147 26.6025 29.7979C26.7204 29.7812 26.8337 29.7414 26.9362 29.6808C27.0386 29.6203 27.1281 29.5401 27.1996 29.445C27.2711 29.3498 27.3231 29.2415 27.3527 29.1262C27.3823 29.011 27.389 28.891 27.3722 28.7732C27.3555 28.6554 27.3157 28.542 27.2551 28.4396C27.0308 28.0628 26.8947 27.6401 26.857 27.2033C26.8193 26.7664 26.8811 26.3267 27.0377 25.9171C27.3134 25.1949 27.8641 24.6113 28.5692 24.2943C29.2743 23.9772 30.0763 23.9525 30.7995 24.2255C31.0242 24.3109 31.2736 24.3034 31.4928 24.2049C31.712 24.1063 31.883 23.9247 31.9683 23.7C32.0536 23.4754 32.0462 23.226 31.9477 23.0068C31.8491 22.7876 31.6675 22.6175 31.4428 22.5322Z" fill="#009B97"/>
</svg>

<svg width="52" height="52" fill="none" xmlns="http://www.w3.org/2000/svg"><path d="M51.785 38.86l-3.947-4.642L46.43 27.3a.908.908 0 00-.355-.553l-6.61-4.816c.201-1.773.375-3.499.507-5.161a6.995 6.995 0 00-.749-3.758V6.996c0-.723-.283-1.397-.79-1.892a2.66 2.66 0 00-1.892-.781c-.452 0-.87.123-1.244.321a2.663 2.663 0 00-.398-.527 2.668 2.668 0 00-1.9-.79 2.64 2.64 0 00-1.294.349 2.656 2.656 0 00-2.25-1.229c-.423 0-.819.109-1.176.287a2.803 2.803 0 00-.474-.672 2.699 2.699 0 00-1.892-.774c-.532 0-1.023.16-1.44.43a3.722 3.722 0 00-.507-.64A3.765 3.765 0 0021.348 0a3.701 3.701 0 00-3.698 3.697V8.2c-1.404 1.919-1.959 4.718-1.483 7.498.168 1.01.482 2 .904 2.867.385.786.865 1.516 1.33 2.221.782 1.193 1.523 2.318 1.724 3.577.156.964-.014 1.982-.195 3.058-.06.36-.12.72-.17 1.077-.45 3.257.088 6.718 1.519 9.742.765 1.627 1.563 2.904 2.969 3.855a8.592 8.592 0 004.737 1.45 8.378 8.378 0 006.862-3.563c.06.08.127.154.21.211l6.987 4.826a.906.906 0 101.03-1.493l-6.772-4.675-2.192-5.149a.909.909 0 00-.182-.275l-3.736-3.866a1.105 1.105 0 01-.211-1.235 1.098 1.098 0 01.7-.603c.316-.09.639-.043.914.133l4.374 2.833a.408.408 0 00.057.037l1.726 1.119a.906.906 0 00.984-1.52l-1.28-.83c.29-1.91.542-3.736.763-5.498l5.505 4.01 1.384 6.8c.03.15.099.29.198.407l4.098 4.82a.902.902 0 001.277.103.906.906 0 00.104-1.277zM35.681 6.995a.861.861 0 011.478-.602.832.832 0 01.252.602v3.763a6.975 6.975 0 00-1.73-1.045V6.995zm-3.543-.988a.866.866 0 111.73 0v3.217c-.137-.019-.274-.041-.415-.052l-1.315-.096V6.007zm-3.543-.879c0-.48.386-.87.86-.87a.873.873 0 01.87.87v3.537a5.198 5.198 0 01-.893-.468l-.837-.555V5.128zm-3.542-1.16a.866.866 0 111.73 0v2.488a7.033 7.033 0 00-1.73-.743V3.968zm-5.59-.271c0-1.039.845-1.885 1.884-1.885.498 0 .99.203 1.343.551.356.354.55.828.55 1.334v1.761a6.843 6.843 0 00-3.778 1.048v-2.81zm18.703 12.929c-.288 3.631-.748 7.514-1.382 11.785l-3.203-2.075a2.917 2.917 0 00-2.405-.352 2.921 2.921 0 00-1.84 1.587 2.905 2.905 0 00.554 3.249l3.618 3.745 1.441 3.385a6.574 6.574 0 01-5.964 3.782 6.756 6.756 0 01-3.724-1.14c-1.065-.72-1.686-1.728-2.344-3.125-1.282-2.711-1.766-5.808-1.36-8.723.045-.34.102-.681.16-1.023.197-1.174.402-2.389.198-3.646-.264-1.641-1.147-2.984-2-4.284-.454-.689-.881-1.338-1.215-2.022a8.78 8.78 0 01-.746-2.373c-.397-2.318.04-4.614 1.17-6.143.819-1.109 1.953-1.764 3.37-1.948a5.23 5.23 0 013.589.844l2.343 1.556c1.671 1.12 2.98 1.135 4.894 1.274a5.226 5.226 0 013.602 1.822 5.202 5.202 0 011.244 3.826v-.001z" fill="#009B97"/><path d="M31.443 22.532a4.73 4.73 0 00-5.748 6.83.906.906 0 001.56-.922 2.906 2.906 0 01-.217-2.523 2.922 2.922 0 013.761-1.692.906.906 0 00.644-1.693z" fill="#009B97"/></svg>
